src/images/svg/symbols/ltc_flag.svg

<svg width="33" height="32" viewBox="0 0 33 32" fill="none" xmlns="http://www.w3.org/2000/svg">
<path d="M0.5 16C0.5 7.16344 7.66344 0 16.5 0C25.3366 0 32.5 7.16344 32.5 16C32.5 24.8366 25.3366 32 16.5 32C7.66344 32 0.5 24.8366 0.5 16Z" fill="#BFBBBB"/>
<path d="M10.927 19.214L9.5 19.768L10.188 17.009L11.632 16.429L13.713 8H18.842L17.323 14.196L18.733 13.625L18.053 16.375L16.626 16.946L15.778 20.429H23.5L22.627 24H9.752L10.927 19.214Z" fill="white"/>
</svg>

<svg width="33" height="32" fill="none" xmlns="http://www.w3.org/2000/svg"><path d="M.5 16c0-8.837 7.163-16 16-16s16 7.163 16 16-7.163 16-16 16-16-7.163-16-16Z" fill="#BFBBBB"/><path d="m10.927 19.214-1.427.554.688-2.759 1.444-.58L13.713 8h5.129l-1.519 6.196 1.41-.571-.68 2.75-1.427.571-.848 3.483H23.5L22.627 24H9.752l1.175-4.786Z" fill="#fff"/></svg>
